X:343
T:Niel Gow's Compliments Returned to Mr Marshall
C:Niel Gow
B:The Beauties of Niel Gow (1819)
O:Scotland
Z:Nigel Gatherer
L:1/8
M:4/4
K:A
A,AcA eAcA|A,A d/c/B/A/ GB B2|A,AcA eAcA|f/e/f/g/ ac EA A2:|
f>a ea d>a ca|B/A/B/c/ d/c/B/A/ GB B2|f>a ea d>a c>a|\
B/A/B/c/ d/c/B/A/  EAAg|
f>a ea d>a ca|B/A/B/c/ d/c/B/A/ GB B2|CEA,A FA df|\
ed/c/ d/c/B/A/ EA A2|]
<end>
<start>
